(tool change to 4 mm Carbide Slot Cutter)
N70T2M06
N80G17G90G21G54
N90G83Q3.5X35Y30Z-3R5F100S7000M03
N100G83Q3.5X35Y55Z-3R5F50
N110G83Q3.5X35Y106.5Z-3R5
N120G80
N130G00Z5S7000M03
N140G00X22Y115.1
N150G00Z2
N160G01Z-3F100
N170G01X48.5Y115.1F50
N180G01X48.5Y117.1
N190G01X22Y117.1
N200G01X22Y119.1
N210G01X48.5Y119.1
N220G01X48.5Y121.1
N230G01X22Y121.1
N240G01X22Y123.1
N250G01X48.5Y123.1
N260G01X48.5Y125.1
N270G01X22Y125.1
N280G01X22Y127.1
N290G01X48.5Y127.1
N300G01X48.5Y129.1
N310G01X22Y129.1
N320G01X22Y131.1
N330G01X48.5Y131.1
N340G01X48.5Y133.1
N350G01X22Y133.1
N360G01X22Y135.1
N370G01X48.5Y135.1
N380G01X48.5Y137.1
N390G01X22Y137.1
N400G01X22Y139.1
N410G01X48.5Y139.1
N420G01X48.5Y141.1
N430G01X22Y141.1
N440G01X22Y143.1
N450G01X48.5Y143.1
N460G01X48.5Y145.1
N470G01X22Y145.1
N480G01X22Y147.1
N490G01X48.5Y147.1
N500G01X48.5Y148
N510G01X22Y148
N520G01X22Y147.1
N530G01X48.5Y147.1
N540G01X48.5Y148
N550G00Z5
N560G00Z5
N570G00X22Y115.1
N580G00Z-1
N590G01Z-4.5F100
N600G01X48.5Y115.1F50
N610G01X48.5Y117.1
N620G01X22Y117.1
N630G01X22Y119.1
N640G01X48.5Y119.1
N650G01X48.5Y121.1
N660G01X22Y121.1
N670G01X22Y123.1
N680G01X48.5Y123.1
N690G01X48.5Y125.1
N700G01X22Y125.1
N710G01X22Y127.1
N720G01X48.5Y127.1
N730G01X48.5Y129.1
N740G01X22Y129.1
N750G01X22Y131.1
N760G01X48.5Y131.1
N770G01X48.5Y133.1
N780G01X22Y133.1
N790G01X22Y135.1
N800G01X48.5Y135.1
N810G01X48.5Y137.1
N820G01X22Y137.1
N830G01X22Y139.1
N840G01X48.5Y139.1
N850G01X48.5Y141.1
N860G01X22Y141.1
N870G01X22Y143.1
N880G01X48.5Y143.1
N890G01X48.5Y145.1
N900G01X22Y145.1
N910G01X22Y147.1
N920G01X48.5Y147.1
N930G01X48.5Y148
N940G01X22Y148
N950G01X22Y147.1
N960G01X48.5Y147.1
N970G01X48.5Y148
N980G00Z5
N990G00Z5
(Outline)
N1000G00X0Y-2.001S7000M03
N1010G00Z2
N1020G01Z-3.5F100
N1030G01X70Y-2.001F50
N1040G03X72.001Y0I0J2.001
N1050G01X72.001Y150
N1060G03X70Y152.001I-2.001J0
N1070G01X0Y152.001
N1080G03X-2.001Y150I0J-2.001
N1090G01X-2.001Y0
N1100G03X0Y-2.001I2.001J0
N1110G00Z5
N1120G00X0Y-2.001
N1130G00Z2
N1140G01Z-7F100
N1150G01X70Y-2.001F50
N1160G03X72.001Y0I0J2.001
N1170G01X72.001Y150
N1180G03X70Y152.001I-2.001J0
N1190G01X0Y152.001
N1200G03X-2.001Y150I0J-2.001
N1210G01X-2.001Y0
N1220G03X0Y-2.001I2.001J0
N1230G00Z5
N1240G00X0Y-2.001
N1250G00Z2
N1260G01Z-10.5F100
N1270G01X70Y-2.001F50
N1280G03X72.001Y0I0J2.001
N1290G01X72.001Y150
N1300G03X70Y152.001I-2.001J0
N1310G01X0Y152.001
N1320G03X-2.001Y150I0J-2.001
N1330G01X-2.001Y0
N1340G03X0Y-2.001I2.001J0
N1350G00Z5
N1360M02
