(tool change to 4 mm Carbide Slot Cutter)
N70T2M06
N80G17G90G21G54
N90G83Q3.5X5Y10Z-3R5F100S7000M03
N100G83Q3.5X20Y10Z-3R5F50
N110G83Q3.5X30Y35Z-3R5
N120G83Q3.5X50Y35Z-3R5
N130G83Q3.5X60Y10Z-3R5
N140G83Q3.5X60Y60Z-3R5
N150G83Q3.5X20Y60Z-3R5
N160G83Q3.5X5Y60Z-3R5
N170G80
(Sketch)
N180G00X70Y-2.001S7000M03
N190G00Z2
N200G01Z-3.5F100
N210G01X0Y-2.001F50
N220G02X-2.001Y0I0J2.001
N230G01X-2.001Y70
N240G02X0Y72.001I2.001J0
N250G01X70Y72.001
N260G02X72.001Y70I0J-2.001
N270G01X72.001Y0
N280G02X70Y-2.001I-2.001J0
N290G00Z5
N300G00X70Y-2.001
N310G00Z2
N320G01Z-7F100
N330G01X0Y-2.001F50
N340G02X-2.001Y0I0J2.001
N350G01X-2.001Y70
N360G02X0Y72.001I2.001J0
N370G01X70Y72.001
N380G02X72.001Y70I0J-2.001
N390G01X72.001Y0
N400G02X70Y-2.001I-2.001J0
N410G00Z5
N420G00X70Y-2.001
N430G00Z2
N440G01Z-10.5F100
N450G01X0Y-2.001F50
N460G02X-2.001Y0I0J2.001
N470G01X-2.001Y70
N480G02X0Y72.001I2.001J0
N490G01X70Y72.001
N500G02X72.001Y70I0J-2.001
N510G01X72.001Y0
N520G02X70Y-2.001I-2.001J0
N530G00Z5
N540M02
