(tool change to 4 mm Carbide Slot Cutter)
N70T2M06
N80G17G90G21G54
(ENTITIES 0)
N90G00X62.001Y29.5S7000M03
N100G00Z2
N110G01Z-3.5F100
N120G03X76.999Y29.5I7.499J0F50
N130G01X76.999Y58
N140G02X79Y60.001I2.001J0
N150G01X99Y60.001
N160G02X101.001Y58I0J-2.001
N170G01X101.001Y29.5
N180G02X69.5Y-2.001I-31.501J0
N190G01X0Y-2.001
N200G02X-2.001Y0I0J2.001
N210G01X-2.001Y39
N220G02X0Y41.001I2.001J0
N230G01X60Y41.001
N240G02X62.001Y39I0J-2.001
N250G01X62.001Y29.5
N260G00Z5
N270G00X62.001Y29.5
N280G00Z2
N290G01Z-7F100
N300G03X76.999Y29.5I7.499J0F50
N310G01X76.999Y58
N320G02X79Y60.001I2.001J0
N330G01X99Y60.001
N340G02X101.001Y58I0J-2.001
N350G01X101.001Y29.5
N360G02X69.5Y-2.001I-31.501J0
N370G01X0Y-2.001
N380G02X-2.001Y0I0J2.001
N390G01X-2.001Y39
N400G02X0Y41.001I2.001J0
N410G01X60Y41.001
N420G02X62.001Y39I0J-2.001
N430G01X62.001Y29.5
N440G00Z5
N450G00X62.001Y29.5
N460G00Z2
N470G01Z-10.5F100
N480G03X76.999Y29.5I7.499J0F50
N490G01X76.999Y58
N500G02X79Y60.001I2.001J0
N510G01X99Y60.001
N520G02X101.001Y58I0J-2.001
N530G01X101.001Y29.5
N540G02X69.5Y-2.001I-31.501J0
N550G01X0Y-2.001
N560G02X-2.001Y0I0J2.001
N570G01X-2.001Y39
N580G02X0Y41.001I2.001J0
N590G01X60Y41.001
N600G02X62.001Y39I0J-2.001
N610G01X62.001Y29.5
N620G00Z5
N630M02
