(tool change to 4 mm Carbide Slot Cutter)
N70T2M06
N80G17G90G21G54
(ENTITIES 0)
N90G00X13.293Y-35S7000M03
N100G00Z2
N110G01Z-3.5F100
N120G01X-60Y-35F50
N130G02X-62Y-33I0J2
N140G01X-62Y13
N150G02X-60Y15I2J0
N160G01X0Y15
N170G02X2Y13I0J-2
N180G01X2Y0
N190G03X24Y0I11J0
N200G02X27.367Y1.459I2J0
N210G02X13.328Y-34.996I-14.406J-15.383
N220G00Z5
N230G00X13.293Y-35
N240G00Z2
N250G01Z-7F100
N260G01X-60Y-35F50
N270G02X-62Y-33I0J2
N280G01X-62Y13
N290G02X-60Y15I2J0
N300G01X0Y15
N310G02X2Y13I0J-2
N320G01X2Y0
N330G03X24Y0I11J0
N340G02X27.367Y1.459I2J0
N350G02X13.328Y-34.996I-14.406J-15.383
N360G00Z5
N370G00X13.293Y-35
N380G00Z2
N390G01Z-10.5F100
N400G01X-60Y-35F50
N410G02X-62Y-33I0J2
N420G01X-62Y13
N430G02X-60Y15I2J0
N440G01X0Y15
N450G02X2Y13I0J-2
N460G01X2Y0
N470G03X24Y0I11J0
N480G02X27.367Y1.459I2J0
N490G02X13.328Y-34.996I-14.406J-15.383
N500G00Z5
N510M02
