O123(Test program)
N10G10L1P1 R1.500Z15.000
N20G10L1P2 R2.000Z15.000
N30G10L1P3 R3.000Z63.000
N40G10L1P4 R3.000Z63.000
N50G10L1P5 R1.500Z63.000
N60G10L1P6 R7.500Z63.000
(tool change to 4 mm Carbide Slot Cutter)
N70T2M06
N80G17G90G21G54
(Sketch)
N90G00X58.285Y-1.028S7000M03
N100G00Z2
N110G01Z-3.5F100
N120G01X-1.714Y98.971F50
N130G02X0Y102I1.714J1.028
N140G01X60Y102
N150G02X62Y100I0J-2
N160G01X62Y0
N170G02X58.285Y-1.028I-2J0
N180G00Z5
N190G00X58.285Y-1.028
N200G00Z2
N210G01Z-7F100
N220G01X-1.714Y98.971F50
N230G02X0Y102I1.714J1.028
N240G01X60Y102
N250G02X62Y100I0J-2
N260G01X62Y0
N270G02X58.285Y-1.028I-2J0
N280G00Z5
N290G00X58.285Y-1.028
N300G00Z2
N310G01Z-10.5F100
N320G01X-1.714Y98.971F50
N330G02X0Y102I1.714J1.028
N340G01X60Y102
N350G02X62Y100I0J-2
N360G01X62Y0
N370G02X58.285Y-1.028I-2J0
N380G00Z5
N390M02
